!!!!SEGMENT: pl-cz--d-ii-35--partytura_elsner-jozef--ave-maria-partytura.krn
!!!cenid: 18xx:195b
!!!COM: Elsner, Józef
!!!COM-rismID:
!!!CDT: 1769/06/01-1854/04/18
!!!CNT: Polish
!!!GTL: Ave Maria
!!!OTL: [partytura]
!!!PDT:
!!!AGN: Sacred
!!!SMS-siglum: PL-CZ
!!!SMS-shelfmark: D II-35
!!!SMS-shelfwork: G
!!!NIFC-rismSourceID:
!!!NIFC-islandoraID:
!!!URL-pdf-islandora:
!!!URL-scan:
!!!ONB-nifc:
!!!OMD: Andante
!!!AIN: 1 alto 1 bass 1 organ 1 soprn 1 tenor
!!!key:
**kern	**dynam	**kern	**dynam	**kern	**text	**dynam	**kern	**text	**dynam	**kern	**text	**dynam	**kern	**text	**dynam
*part5	*	*part5	*part5	*part4	*part4	*part4	*part3	*part3	*part3	*part2	*part2	*part2	*part1	*part1	*part1
*staff6	*	*staff5	*	*staff4	*staff4	*	*staff3	*staff3	*	*staff2	*staff2	*	*staff1	*staff1	*
*Iorgan	*	*Iempty	*	*Ibass	*	*	*Itenor	*	*	*Ialto	*	*	*Isoprn	*	*
*I"Organo	*	*	*	*I"Basso	*	*	*I"Tenore	*	*	*I"Alto	*	*	*I"Soprano	*	*
*I'Org.	*	*	*	*I'B.	*	*	*I'T.	*	*	*I'A.	*	*	*I'S.	*	*
*clefF4	*	*clefG2	*	*clefF4	*	*	*clefC4	*	*	*clefC3	*	*	*clefC1	*	*
*k[b-e-]	*	*k[b-e-]	*	*k[b-e-]	*	*	*k[b-e-]	*	*	*k[b-e-]	*	*	*k[b-e-]	*	*
*B-:	*	*B-:	*	*B-:	*	*	*B-:	*	*	*B-:	*	*	*B-:	*	*
*M4/4	*	*M4/4	*	*M4/4	*	*	*M4/4	*	*	*M4/4	*	*	*M4/4	*	*
*met(c|)	*	*met(c|)	*	*met(c|)	*	*	*met(c|)	*	*	*met(c|)	*	*	*met(c|)	*	*
=1	=1	=1	=1	=1	=1	=1	=1	=1	=1	=1	=1	=1	=1	=1	=1
!	!	!	!	!	!	!	!	!	!	!	!	!	!LO:SIC:v=w oznaczeniu tempa litera a jak mała	!	!
!	!	!	!	!	!	!	!	!	!	!	!	!	!LO:TX:a:t=Andante	!	!
2BB-\ 2B-\	.	2f/ 2b-/ 2dd/	.	2BB-/	A-	.	2f\	A-	.	2b-\	A-	.	2dd\	A-	.
!	!	!	!	!	!	!	!	!	!	!	!	!	!LO:TX:a:t=dol&colon;	!	!
2F\	.	4.e-/ 4.a/ 4.cc/	.	4.F\	-ve	.	4.e-\	-ve	.	4.a\	-ve	.	4.cc\	-ve	.
.	.	8f/ 8b-/ 8dd/	.	8F\	Ma-	.	8f\	Ma-	.	8b-\	Ma-	.	8dd\	Ma-	.
=2	=2	=2	=2	=2	=2	=2	=2	=2	=2	=2	=2	=2	=2	=2	=2
(2BB-\ 2B-\	.	2d/ 2f/ 2b-/	.	4B-\	-ri-	.	2d\	-ri-	.	2f\	-ri-	.	2b-\	-ri-	.
.	.	.	.	2B-\	-a	.	.	.	.	.	.	.	.	.	.
4BB-\) 4B-\	.	(8d/L 8f/	.	.	.	.	4d\	-a	.	4f\	-a	.	4f/	-a	.
.	.	8b-/	.	.	.	.	.	.	.	.	.	.	.	.	.
4r	.	8a/) 8cc/	.	4r	.	.	4r	.	.	4r	.	.	4r	.	.
.	.	8b-/J 8dd/	.	.	.	.	.	.	.	.	.	.	.	.	.
=3	=3	=3	=3	=3	=3	=3	=3	=3	=3	=3	=3	=3	=3	=3	=3
2AA\ 2A\	.	[2f/ 2cc/ 2ee-/	.	2A\	A-	.	2c\	A-	.	2f\	A-	.	2ee-^\	A-	.
2BB-\ 2B-\	.	2f/] 2b-/ 2dd/	.	4.B-\	-ve	.	4.d\	-ve	.	4.f\	-ve	.	4.dd\	-ve	.
.	.	.	.	8BB-/	Ma-	.	8B-\	Ma-	.	8f\	Ma-	.	8dd\	Ma-	.
=4	=4	=4	=4	=4	=4	=4	=4	=4	=4	=4	=4	=4	=4	=4	=4
*	*	*^	*	*	*	*	*	*	*	*	*	*	*	*	*
(2FF/ 2F/	.	4.a/ 4.cc/	2f\	.	2F\	-ri-	.	4.A\	-ri-	.	2f\	-ri-	.	(4.cc\	-ri-	.
.	.	8b-/ 8dd/	.	.	.	.	.	8B-\	.	.	.	.	.	8dd\)	.	.
4FF/) 4F/	.	8a/L 8cc/	4f\	.	4F\	-a	.	4A\	-a	.	4f\	-a	.	4cc\	-a	.
.	.	8b-/ 8dd/	.	.	.	.	.	.	.	.	.	.	.	.	.	.
4r	.	8cc/ 8ee-/	4r	.	4r	.	.	4r	.	.	4r	.	.	4r	.	.
.	.	8cc#X/J 8een/	.	.	.	.	.	.	.	.	.	.	.	.	.	.
=5	=5	=5	=5	=5	=5	=5	=5	=5	=5	=5	=5	=5	=5	=5	=5	=5
*^	*	*	*	*	*	*	*	*	*	*	*	*	*	*	*	*
2B-/	2D\	.	4.dd/ 4.ff/	2f\	.	4.D\	Gra-	.	4.B-\	Gra-	.	4.f\	Gra-	.	4.ff^\	Gra-	.
.	.	.	8b-/	.	.	8D\	-ti-	.	8B-\	-ti-	.	8f\	-ti-	.	8b-\	-ti-	.
2B-/	2G\	.	2d/ 2g/ 2b-/	2ryy	.	2G\	-a	.	2B-\	-a	.	2d\	-a	.	2b-\	-a	.
*	*	*	*v	*v	*	*	*	*	*	*	*	*	*	*	*	*	*
=6	=6	=6	=6	=6	=6	=6	=6	=6	=6	=6	=6	=6	=6	=6	=6	=6
2c/	2C\	.	4.en/ 4.g/ 4.b-/	.	2C/	ple-	.	(4.G/	ple-	.	(4.en\	ple	.	(4.b-\	ple-	.
.	.	.	8f/ 8a/	.	.	.	.	8A/)	.	.	8f\)	.	.	8a\)	.	.
*	*	*	*^	*	*	*	*	*	*	*	*	*	*	*	*	*
4F/ 4A/ 4c/	2ryy	.	8a/L 8cc/	4f\	.	4F\	-na	.	4A/	-na	.	4f\	na	.	4cc\	-na	.
.	.	.	8b-/ 8dd/	.	.	.	.	.	.	.	.	.	.	.	.	.	.
4r	.	.	8cc/ 8ee-/	4r	.	4r	.	.	4r	.	.	4r	.	.	4r	.	.
.	.	.	8cc#X/J 8een/	.	.	.	.	.	.	.	.	.	.	.	.	.	.
=7	=7	=7	=7	=7	=7	=7	=7	=7	=7	=7	=7	=7	=7	=7	=7	=7	=7
!!pagebreak:original
2B-/	2D\	.	4.dd/ 4.ff/	2f\	.	4.D\	Do-	.	4.B-\	Do-	.	4.f\	Do-	.	4.ff\	Do	.
.	.	.	8b-/	.	.	8D\	-mi-	.	8B-\	-mi	.	8f\	-mi	.	8b-\	mi-	.
2B-/	2G\	.	2d/ 2g/ [2b-/	2ryy	.	2G\	-nus	.	2B-\	nus	.	2d\	nus	.	2b-\	-nus	.
*v	*v	*	*	*	*	*	*	*	*	*	*	*	*	*	*	*	*
*	*	*v	*v	*	*	*	*	*	*	*	*	*	*	*	*	*
=8	=8	=8	=8	=8	=8	=8	=8	=8	=8	=8	=8	=8	=8	=8	=8
!	!	!	!	!	!	!	!LO:N:vis=8.	!	!	!	!	!	!	!	!
2C/ 2c/	.	4.en/ 4.g/ 4.b-/]	.	2C/	te-	.	8G/	te-	.	(4.en\	te-	.	(4.b-\	te-	.
.	.	.	.	.	.	.	4A/	.	.	.	.	.	.	.	.
.	.	8f/ 8a/	.	.	.	.	8r	.	.	8f\)	.	.	8a\)	.	.
*^	*	*	*	*	*	*	*	*	*	*	*	*	*	*	*
2A/ 2c/	2F\	.	2f/ 2a/ 2cc/	.	2F\	-cum	.	2A/	-cum	.	2f\	-cum	.	2cc\	-cum	.
*v	*v	*	*	*	*	*	*	*	*	*	*	*	*	*	*	*
=9	=9	=9	=9	=9	=9	=9	=9	=9	=9	=9	=9	=9	=9	=9	=9
!!linebreak:original
*	*	*^	*	*	*	*	*	*	*	*	*	*	*	*	*
*	*	*^	*	*	*	*	*	*	*	*	*	*	*	*	*	*
2DD/ 2D/	.	2a/	2.dd/	2f#X\	.	2D\	Be-	.	2A\	Be-	.	2f#X\	Be-	.	2.dd\	Be-	.
2EE-/ 2E-/	.	4ryy	.	2g\	.	2E-\	-ne-	.	2G/	-ne	.	2g\	-ne-	.	.	.	.
.	.	4ryy	4cc/	.	.	.	.	.	.	.	.	.	.	.	4cc\	-ne	.
*	*	*v	*v	*	*	*	*	*	*	*	*	*	*	*	*	*	*
*	*	*v	*v	*	*	*	*	*	*	*	*	*	*	*	*	*
=10	=10	=10	=10	=10	=10	=10	=10	=10	=10	=10	=10	=10	=10	=10	=10
!	!	!	!	!	!	!	!	!	!	!	!	!	!LO:SIC:v=niejednoznaczny początek łuku	!	!
2.FF/ 2.F/	.	((2d/ 2fn/ 2b-/	.	2.F\	-di-	.	(2d\	di-	.	([2fn\	-di-	.	(2b-\	di-	.
.	.	(8c/L)) 8f/ 8a/	.	.	.	.	8c\L	.	.	8f\L]	.	.	8a\L	.	.
.	.	8g/ 8b-/	.	.	.	.	8B-\J)	.	.	8g\J)	.	.	8b-\J)	.	.
4FF/ 4F/	.	8a/ 8cc/	.	4F\	-cta	.	8A\L	-cta	.	8a\L	.	.	8cc\L	.	.
.	.	8a-X/J) 8bn/ 8dd/	.	.	.	.	8A-X\J	.	.	8b-\J	-cta	.	8dd\J	-cta	.
=11	=11	=11	=11	=11	=11	=11	=11	=11	=11	=11	=11	=11	=11	=11	=11
(2CC/ 2C/	.	2.g/ 2.cc/ 2.ee-/	.	2.C/	tu	.	2.G/	tu	.	2.cc\	tu	.	2.ee-\	tu	.
(8CC/L) 8C/	.	.	.	.	.	.	.	.	.	.	.	.	.	.	.
8DD/ 8D/	.	.	.	.	.	.	.	.	.	.	.	.	.	.	.
8CC/ 8C/	.	4r	.	4r	.	.	4r	.	.	4r	.	.	4r	.	.
8BBB-/J) 8BB-/	.	.	.	.	.	.	.	.	.	.	.	.	.	.	.
=12	=12	=12	=12	=12	=12	=12	=12	=12	=12	=12	=12	=12	=12	=12	=12
*	*	*^	*	*	*	*	*	*	*	*	*	*	*	*	*
*	*	*	*^	*	*	*	*	*	*	*	*	*	*	*	*	*
2AAA/ 2AA/	.	2.ee-/	2cc\	1f/	.	2AA/	Be-	.	2c\	Be-	.	2f\	Be-	.	2.ee-\	Be-	.
2BBB-/ 2BB-/	.	.	2b-\	.	.	2BB-/	-ne	.	2B-\	-ne	.	2f\	-ne	.	.	.	.
.	.	4dd/	.	.	.	.	.	.	.	.	.	.	.	.	4dd\	-ne	.
*	*	*	*v	*v	*	*	*	*	*	*	*	*	*	*	*	*	*
=13	=13	=13	=13	=13	=13	=13	=13	=13	=13	=13	=13	=13	=13	=13	=13	=13
2FF/ 2F/	.	2cc/	4.f\ 4.b-\	.	[2F\	di-	.	(4B-\	di-	.	(4.f\	di-	.	(2cc\	di-	.
.	.	.	.	.	.	.	.	4A\	.	.	.	.	.	.	.	.
.	.	.	8e-\ 8a\	.	.	.	.	.	.	.	8e-\	.	.	.	.	.
8FF/L 8F/	.	8d/L 8a-X/ 8bn/	2ryy	.	8F\L]	.	.	8A-X\L	.	.	8d\L)	.	.	8bn\L	.	.
8EE-/ 8E-/	.	8e-/ 8g/ 8cc/	.	.	8E-\J	.	.	8G\J	.	.	8e-\J	.	.	8cc\J	.	.
8DD/ 8D/	.	8f/ 8bn/ 8dd/	.	.	8D\L	.	.	8F/L)	.	.	8f\L	.	.	8dd\L)	.	.
8CC/J 8C/	.	8g/J 8cc/ 8ee-/	.	.	8C\J	-cta	.	8E-/J	-cta	.	8g\J	-cta	.	8ee-\J	-cta	.
=14	=14	=14	=14	=14	=14	=14	=14	=14	=14	=14	=14	=14	=14	=14	=14	=14
2BBBn/ 2BBn/	.	2dd/ 2ff/	(>2a-X\	.	2BBn/	tu	.	2D/	tu	.	2a-X\	tu	.	2ff\	tu	.
4r	.	4r	2g\)	.	4r	.	.	4r	.	.	4r	.	.	4r	.	.
4GG/ 4G/	.	4bn/ 4dd/	.	.	4G\	in	.	4Bn\	in	.	4g\	in	.	4dd\	in	.
=15	=15	=15	=15	=15	=15	=15	=15	=15	=15	=15	=15	=15	=15	=15	=15	=15
4BBBn/ 4BBn/	.	4dd/ 4ff/	4.g\	.	4BBn/	muli	.	(4d\	mu	.	4.g\	mu	.	(4ff\	mu-	.
(8CC/L 8C/	.	4cc/ [4ee-/	.	.	8C/L	.	.	8c\)	.	.	.	.	.	8ee-\)	.	.
8BBB-X/J) 8BB-X/	.	.	8g-X\	.	8BB-X/J	.	.	8e-\	li	.	8g-X\	li	.	8cc\	-li	.
!	!	!	!LO:SIC:v=2f między miarą 3 a 4	!	!	!	!	!	!	!	!	!	!	!	!	!
4AAA/ 4AA/	.	4cc/ 4ee-/]	2f\	.	4AA/	e-	.	(4c\	e-	.	4.f\	e-	.	(4ee-\	e-	.
4BBB-/ 4BB-/	.	4b-/ 4dd/	.	.	4BB-/	-ri-	.	8B-\)	.	.	.	.	.	8dd\)	.	.
.	.	.	.	.	.	.	.	8d\	-ri-	.	8f\	-ri-	.	8b-\	-ri-	.
=16	=16	=16	=16	=16	=16	=16	=16	=16	=16	=16	=16	=16	=16	=16	=16	=16
2FF/ 2F/	.	2a/ 2cc/	2f\	.	2F\	-bus	.	2A/	-bus	.	2f\	-bus	.	2cc\	-bus	.
4r	.	4r	2f\	.	4r	.	.	4r	.	.	4r	.	.	4r	.	.
4F\ 4c\	.	4a/	.	.	4F\	et	.	4c\	et	.	4f\	et	.	4a\	et	.
=17	=17	=17	=17	=17	=17	=17	=17	=17	=17	=17	=17	=17	=17	=17	=17	=17
!!pagebreak:original
*^	*	*	*	*	*	*	*	*	*	*	*	*	*	*	*	*
4d/	2F\	.	4b-/	2f\	.	4F\	be-	.	4d\	be-	.	4f\	be-	.	4b-\	be-	.
4c/	.	.	4a/	.	.	4F\	-ne	.	4c\	-ne-	.	4f\	-ne	.	4a\	-ne	.
(4.en/	2F\	.	(>2g/ 2b-/	2ryy	.	2F\	di-	.	(4.en\	-di-	.	2g\	di-	.	2b-\	di-	.
16d/LL)	.	.	.	.	.	.	.	.	16d\LL	.	.	.	.	.	.	.	.
!	!	!	!	!	!	!	!	!	!LO:SIC:v=niejednoznaczne zakończenie łuku	!	!	!	!	!	!	!	!
(16e/JJ	.	.	.	.	.	.	.	.	16e\JJ)	.	.	.	.	.	.	.	.
*	*	*	*v	*v	*	*	*	*	*	*	*	*	*	*	*	*	*
=18	=18	=18	=18	=18	=18	=18	=18	=18	=18	=18	=18	=18	=18	=18	=18	=18
4f/)	4F\	.	4f/) 4a/	.	4F\	-ctus	.	4f\	-ctus	.	4f\	-ctus	.	4a\	-ctus	.
*	*	*	*^	*	*	*	*	*	*	*	*	*	*	*	*	*
4A/	2F\	.	4cc/	2f\	.	4F\	et	.	4A/	et	.	4f\	et	.	4cc\	et	.
8qqc/	.	.	8qqeen/	.	.	.	.	.	8qqc/	.	.	.	.	.	8qeen/	.	.
4B-/	.	.	4dd/	.	.	4F\	be-	.	4B-\	be-	.	4f\	be-	.	4dd\	be-	.
4A/	4F\	.	4cc/	4f\	.	4F\	-ne-	.	4A/	-ne	.	4f\	-ne	.	4cc\	-ne-	.
=19	=19	=19	=19	=19	=19	=19	=19	=19	=19	=19	=19	=19	=19	=19	=19	=19	=19
2B-/	2C\	.	(<4.een/	2g\	.	2C/	-di-	.	2B-\	di-	.	2g\	di-	.	(4.een\	-di-	.
.	.	.	16dd/LL	.	.	.	.	.	.	.	.	.	.	.	16dd\LL	.	.
.	.	.	16ee/JJ)	.	.	.	.	.	.	.	.	.	.	.	16ee\JJ)	.	.
2A/	2D\	.	2ff/	2f\	.	2D/	-ctus	.	2A/	-ctus	.	2f\	-ctus	.	2ff\	-ctus	.
*v	*v	*	*	*	*	*	*	*	*	*	*	*	*	*	*	*	*
=20	=20	=20	=20	=20	=20	=20	=20	=20	=20	=20	=20	=20	=20	=20	=20	=20
4.BBB-/ 4.BB-/	.	4dd/ 4ff/	4.f\	.	4.BB-/	fru-	.	4d\	fructus	.	4.f\	fructus	.	4ff\	fructus	.
.	.	8cc/L 8een/	.	.	.	.	.	8c\L	.	.	.	.	.	8een\L	.	.
8BBB-/ 8BB-/	.	8b-/J 8dd/	16f\LL	.	8BB-/	-ctus	.	8B-\J	.	.	16f\LL	.	.	8dd\J	.	.
.	.	.	16f#X\JJ	.	.	.	.	.	.	.	16f#X\JJ	.	.	.	.	.
4.BBB-/ 4.BB-/	.	4g/ 4b-/ 4dd/	2ryy	.	4.BB-/	ven-	.	4B-\	ven-	.	4g\	ventris	.	4dd\	ventris	.
.	.	8f#X/L 8a/ 8cc/	.	.	.	.	.	8c\L	-tris	.	8a\L	.	.	8cc\L	.	.
8BBB-/ 8BB-/	.	8d/J 8g/ 8b-/	.	.	8BB-/	-tris	.	8d\J	.	.	8b-\J	.	.	8b-\J	.	.
=21	=21	=21	=21	=21	=21	=21	=21	=21	=21	=21	=21	=21	=21	=21	=21	=21
*	*	*	*^	*	*	*	*	*	*	*	*	*	*	*	*	*
!LO:SIC:v=1CC i 1C na miarę 2i	!	!	!	!	!	!	!	!	!	!	!	!	!	!	!	!	!
1CC/ 1C/	.	4a/	2fn/	4c\	.	4.C/	tui	.	4c\	tui	.	4.f\	tui	.	4a\	tui	.
.	.	8b-/L	.	8d\L	.	.	.	.	8d\L	.	.	.	.	.	8b-\L	.	.
.	.	8a/J	.	8c\J	.	8C/	.	.	8c\J	.	.	(8f\	.	.	8a\J	.	.
.	.	4f/	2g/	4.c\	.	2C/	Je-	.	4.c\	Je-	.	4f\	Je-	.	2g\	Je-	.
.	.	4en/	.	.	.	.	.	.	.	.	.	4en\)	.	.	.	.	.
.	.	.	.	8B-\	.	.	.	.	8B-\	.	.	.	.	.	.	.	.
*	*	*	*v	*v	*	*	*	*	*	*	*	*	*	*	*	*	*
=22	=22	=22	=22	=22	=22	=22	=22	=22	=22	=22	=22	=22	=22	=22	=22	=22
2FF/ 2F/	.	2A/ 2c/ 2f/	1ryy	.	2F\	-sus	.	2A\	-sus	.	2f\	-sus	.	2f/	-sus	.
2r	.	2r	.	.	2r	.	.	2r	.	.	2r	.	.	4r	.	.
.	.	.	.	.	.	.	.	.	.	.	.	.	.	8f/L	Je-	.
.	.	.	.	.	.	.	.	.	.	.	.	.	.	16b-/L	.	.
.	.	.	.	.	.	.	.	.	.	.	.	.	.	16a/JJ	.	.
=23	=23	=23	=23	=23	=23	=23	=23	=23	=23	=23	=23	=23	=23	=23	=23	=23
*^	*	*	*	*	*	*	*	*	*	*	*	*	*	*	*	*
4A/	1C\	.	1cc/	4f\	.	1C/	Je-	.	4A\	Je-	.	4f\	Je-	.	(1cc\	.	.
(8B-/L	.	.	.	(>8g\L	.	.	.	.	8B-\L	.	.	8g\L	.	.	.	.	.
8A/J	.	.	.	8f\J	.	.	.	.	8A\J	.	.	8f\J	.	.	.	.	.
!LO:SIC:v=niejednoznaczne zakończenie łuku	!	!	!	!	!	!	!	!	!	!	!	!	!	!	!	!	!
8G/L)	.	.	.	8en\L	.	.	.	.	8G\L	.	.	8en\L	.	.	.	.	.
16A/L	.	.	.	16f\L)	.	.	.	.	16A\L	.	.	16f\L	.	.	.	.	.
16G/JJ	.	.	.	16e\JJ	.	.	.	.	16G\JJ	.	.	16e\JJ	.	.	.	.	.
8F/L	.	.	.	8d#X\L	.	.	.	.	8F#X/L	.	.	8d#X\L	.	.	.	.	.
8G/J	.	.	.	8e\J	.	.	.	.	8G/J	.	.	8e\J	.	.	.	.	.
*	*	*	*v	*v	*	*	*	*	*	*	*	*	*	*	*	*	*
=24	=24	=24	=24	=24	=24	=24	=24	=24	=24	=24	=24	=24	=24	=24	=24	=24
2A/	2F\	.	2f/ 2cc/	.	2.FF/	-sus	.	2.A/	-sus	.	2.f\	-sus	.	2.cc\)	-sus	.
8r	2ryy	.	8r	.	.	.	.	.	.	.	.	.	.	.	.	.
8r	.	.	&(>8f/L	.	.	.	.	.	.	.	.	.	.	.	.	.
8r	.	.	8en/ 8g/	.	4r	.	.	4r	.	.	4r	.	.	4r	.	.
8e-X\	.	.	8f/J 8a/	.	.	.	.	.	.	.	.	.	.	.	.	.
*v	*v	*	*	*	*	*	*	*	*	*	*	*	*	*	*	*
=25||	=25||	=25||	=25||	=25||	=25||	=25||	=25||	=25||	=25||	=25||	=25||	=25||	=25||	=25||	=25||
!!linebreak:original
*	*	*^	*	*	*	*	*	*	*	*	*	*	*	*	*
!	!	!	!	!	!	!	!	!	!	!	!	!	!	!LO:TX:b:t=il Can&colon; Subit sanza Organo	!	!
8d\L	.	8b-/L	2f\	.	1r	.	.	1r	.	.	1r	.	.	1r	.	.
(8A\	.	8cc/	.	.	.	.	.	.	.	.	.	.	.	.	.	.
8B-\	.	8dd/	.	.	.	.	.	.	.	.	.	.	.	.	.	.
16A\L	.	(<16cc/L	.	.	.	.	.	.	.	.	.	.	.	.	.	.
16B-\JJ	.	16dd/JJ)	.	.	.	.	.	.	.	.	.	.	.	.	.	.
8G\L	.	(<8ee-/L	8e-\L	.	.	.	.	.	.	.	.	.	.	.	.	.
8F\	.	8dd/J)	8f\J	.	.	.	.	.	.	.	.	.	.	.	.	.
8e-\)	.	8a/L 8cc/	[>4f\	.	.	.	.	.	.	.	.	.	.	.	.	.
8d\J	.	8b-/J	.	.	.	.	.	.	.	.	.	.	.	.	.	.
=26	=26	=26	=26	=26	=26	=26	=26	=26	=26	=26	=26	=26	=26	=26	=26	=26
8c\L	.	8a/L 8ee-/	4f\]	.	1r	.	.	1r	.	.	1r	.	.	1r	.	.
8B-\	.	8b-/ 8dd/	.	.	.	.	.	.	.	.	.	.	.	.	.	.
8A\	.	8f/ 8cc/	4c\	.	.	.	.	.	.	.	.	.	.	.	.	.
8G\J	.	8en/J 8b-/	.	.	.	.	.	.	.	.	.	.	.	.	.	.
4F\	.	8f/L 8a/	4c\	.	.	.	.	.	.	.	.	.	.	.	.	.
.	.	8g/ 8b-/	.	.	.	.	.	.	.	.	.	.	.	.	.	.
4r	.	8g#X/ 8bn/&)	4ryy	.	.	.	.	.	.	.	.	.	.	.	.	.
.	.	8a/J 8cc/	.	.	.	.	.	.	.	.	.	.	.	.	.	.
=27	=27	=27	=27	=27	=27	=27	=27	=27	=27	=27	=27	=27	=27	=27	=27	=27
2BB-\ 2B-\	.	2f/ 2b-X/ 2dd/	1ryy	.	2BB-/	San-	.	2f\	San-	.	2b-\	San-	.	2dd\	San-	.
2F\	.	4.e-/ 4.a/ 4.cc/	.	.	4.F\	-cta	.	4.e-\	-cta	.	4.a\	-cta	.	4.cc\	-cta	.
.	.	8f/ 8b-/ 8dd/	.	.	8F\	Ma-	.	8g\	Ma-	.	8b-\	Ma-	.	8dd\	Ma-	.
*	*	*v	*v	*	*	*	*	*	*	*	*	*	*	*	*	*
=28	=28	=28	=28	=28	=28	=28	=28	=28	=28	=28	=28	=28	=28	=28	=28
[>2BB-\ [2B-\	.	2d/ 2f/ 2b-/	.	2B-\	-ri-	.	2d\	-ri-	.	2f\	-ri-	.	2b-\	-ri-	.
*	*	*^	*	*	*	*	*	*	*	*	*	*	*	*	*
4BB-\] 4B-\]	.	8f/L	4d\	.	4B-\	-a	.	4d\	-a	.	4f\	-a	.	4f/	-a	.
.	.	8b-/	.	.	.	.	.	.	.	.	.	.	.	.	.	.
4r	.	8a/ 8cc/	4r	.	4r	.	.	4r	.	.	4r	.	.	4r	.	.
.	.	8b-/J 8dd/	.	.	.	.	.	.	.	.	.	.	.	.	.	.
*	*	*v	*v	*	*	*	*	*	*	*	*	*	*	*	*	*
=29	=29	=29	=29	=29	=29	=29	=29	=29	=29	=29	=29	=29	=29	=29	=29
2AA\ 2A\	.	2f\ 2cc\ 2ee-\	.	2A\	San-	.	2c\	San-	.	2f\	San-	.	2ee-^\	San-	.
2BB-\ 2B-\	.	2f/ 2b-/ 2dd/	.	4.B-\	-cta	.	4.d\	-cta	.	4.f\	-cta	.	4.dd\	-cta	.
.	.	.	.	8BB-/	Ma-	.	8B-\	Ma-	.	8f\	Ma-	.	8dd\	Ma-	.
=30	=30	=30	=30	=30	=30	=30	=30	=30	=30	=30	=30	=30	=30	=30	=30
*	*	*^	*	*	*	*	*	*	*	*	*	*	*	*	*
(2FF\ 2F\	.	4.a/ 4.cc/	2f\	.	2F\	-ri-	.	(4.A/	-ri-	.	2f\	-ri-	.	(4.cc\	-ri-	.
.	.	8b-/ 8dd/	.	.	.	.	.	8B-/)	.	.	.	.	.	8dd\)	.	.
4FF\) 4F\	.	(<8a/L 8cc/	4f\	.	4F\	-a	.	4A/	-a	.	4f\	-a	.	4cc\	-a	.
.	.	8b-/ 8dd/	.	.	.	.	.	.	.	.	.	.	.	.	.	.
4r	.	8cc/ 8ee-/	4ryy	.	4r	.	.	4r	.	.	4r	.	.	4r	.	.
.	.	8cc#X/J) 8een/	.	.	.	.	.	.	.	.	.	.	.	.	.	.
=31	=31	=31	=31	=31	=31	=31	=31	=31	=31	=31	=31	=31	=31	=31	=31	=31
*^	*	*	*	*	*	*	*	*	*	*	*	*	*	*	*	*
!	!	!	!	!	!	!	!	!	!	!	!	!LO:N:vis=2.	!	!	!	!	!
2B-/	2D\	.	4.dd/ 4.ff/	2f\	.	2D\	Ma-	.	2B-\	Ma-	.	2f\	Ma-	.	(4.ff^\	Ma-	.
.	.	.	8b-/	.	.	.	.	.	.	.	.	.	.	.	8b-\)	.	.
2B-/	2G\	.	[2b-/	2d\ 2g\	.	2G\	-ter	.	2B-\	-ter	.	2d\	-ter	.	2b-\	-ter	.
*	*	*	*v	*v	*	*	*	*	*	*	*	*	*	*	*	*	*
=32	=32	=32	=32	=32	=32	=32	=32	=32	=32	=32	=32	=32	=32	=32	=32	=32
2c/	2C\	.	4.en/ 4.g/ 4.b-/]	.	2C/	De-	.	(4.G/	De-	.	(4.en\	De-	.	(4.b-\	De-	.
.	.	.	8f/ 8a/	.	.	.	.	8A/)	.	.	8f\	.	.	8a\)	.	.
*	*	*	*^	*	*	*	*	*	*	*	*	*	*	*	*	*
4A/ 4c/	4F\	.	(<8a/L 8cc/	4f\	.	4F\	-i	.	4A/	-i	.	4f\)	-i	.	4cc\	-i	.
.	.	.	8b-/ 8dd/	.	.	.	.	.	.	.	.	.	.	.	.	.	.
4r	4ryy	.	8cc/ 8ee-/	4ryy	.	4r	.	.	4r	.	.	4r	.	.	4r	.	.
.	.	.	8cc#X/J) 8een/	.	.	.	.	.	.	.	.	.	.	.	.	.	.
=33	=33	=33	=33	=33	=33	=33	=33	=33	=33	=33	=33	=33	=33	=33	=33	=33	=33
!!pagebreak:original
*	*	*	*	*	*	*	*	*	*	*ij	*	*	*ij	*	*	*	*
2B-/	2BB-\	.	4.dd/ 4.ff/	2f\	.	2D\	Ma-	.	2B-\	Ma-	.	2f\	Ma-	.	(4.ff\	Ma-	.
.	.	.	8b-/	.	.	.	.	.	.	.	.	.	.	.	8b-\)	.	.
2B-/	2G\	.	2g/ [2b-/	2d\	.	2G\	-ter	.	2B-\	-ter	.	2d\	-ter	.	2b-\	-ter	.
*	*	*	*v	*v	*	*	*	*	*	*	*	*	*	*	*	*	*
=34	=34	=34	=34	=34	=34	=34	=34	=34	=34	=34	=34	=34	=34	=34	=34	=34
2c/	2C\	.	4.e-/ 4.gn/ 4.b-/]	.	2C/	De-	.	(4.G/	De-	.	(4.en\	De-	.	(4.b-\	De-	.
.	.	.	8f/ 8a/	.	.	.	.	8A/)	.	.	8f\)	.	.	8a\)	.	.
2F/ 2A/ 2c/	2F\	.	2f/ 2a/ 2cc/	.	2F\	-i	.	2A/	-i	.	2f\	-i	.	2cc\	-i	.
*	*	*	*	*	*	*	*	*	*Xij	*	*	*Xij	*	*	*	*
*v	*v	*	*	*	*	*	*	*	*	*	*	*	*	*	*	*
=35	=35	=35	=35	=35	=35	=35	=35	=35	=35	=35	=35	=35	=35	=35	=35
*	*	*^	*	*	*	*	*	*	*	*	*	*	*	*	*
!	!	!	!	!	!	!	!	!	!	!	!	!	!	!	!	!LO:DY:a:rj
2DD/ 2D/	.	2.dd/	2f#X\ 2a\	.	2D\	o-	.	2A/	o-	.	2f#X\	o-	.	2dd\	o-	p
2EE-/ 2E-/	.	.	2g\	.	4E-\	-ra	.	4G/	-ra	.	4g\	-ra	.	4dd\	-ra	.
.	.	4cc/	.	.	4E-\	pro	.	4c\	pro	.	4g\	pro	.	4cc\	pro	.
*	*	*v	*v	*	*	*	*	*	*	*	*	*	*	*	*	*
=36	=36	=36	=36	=36	=36	=36	=36	=36	=36	=36	=36	=36	=36	=36	=36
2FF/ [2F/	.	2d/ 2fn/ 2b-/	.	2F\	no-	.	2d\	no-	.	2fn\	no-	.	2b-\	no-	.
4FF/ 4F/]	.	8c/L 8f/ 8a/	.	4F\	-bis	.	4c\	bis	.	4f\	-bis	.	4a\	-bis	.
.	.	(8b-/	.	.	.	.	.	.	.	.	.	.	.	.	.
4r	.	8a/ 8cc/	.	4r	.	.	4r	.	.	4r	.	.	4r	.	.
.	.	8b-/J) 8dd/	.	.	.	.	.	.	.	.	.	.	.	.	.
=37	=37	=37	=37	=37	=37	=37	=37	=37	=37	=37	=37	=37	=37	=37	=37
*	*	*^	*	*	*	*	*	*	*	*	*	*	*	*	*
*	*	*	*	*	*	*	*	*	*ij	*	*	*	*	*	*	*
2FF#X/ 2F#X/	.	2.cc/ 2.ee-/	2a\	.	2F#X^\	o-	.	2c^\	o-	.	2a^\	o-	.	2ee-^\	ora	.
2GG\ 2G\	.	.	[>2g\	.	4G\	-ra	.	4c\	-ra	.	4g\	-ra	.	4ee-\	.	.
.	.	4bn/ 4dd/	.	.	4G\	pro	.	4Bn\	pro	.	4g\	pro	.	4dd\	pro	.
=38	=38	=38	=38	=38	=38	=38	=38	=38	=38	=38	=38	=38	=38	=38	=38	=38
*	*	*	*^	*	*	*	*	*	*	*	*	*	*	*	*	*
2AA-X\ 2A-X\	.	2cc/	4g\]	2c/	.	2A-X\	no-	.	2c\	no-	.	(4g\	no-	.	2cc\	no-	.
.	.	.	4f#X\	.	.	.	.	.	.	.	.	4f#X\)	.	.	.	.	.
4GG\ 4G\	.	4g/ 4bn/	4d\	2ryy	.	4G\	-bis	.	4d\	-bis	.	4g\	-bis	.	4bn\	-bis	.
*	*	*	*	*	*	*	*	*	*	*Xij	*	*	*	*	*	*	*
4FF\ 4F\	.	4d/ 4g/ 4b/	4ryy	.	.	4F\	pro	.	4d\	pro	.	4g\	pro	.	4b\	pro-	.
*	*	*v	*v	*v	*	*	*	*	*	*	*	*	*	*	*	*	*
=39	=39	=39	=39	=39	=39	=39	=39	=39	=39	=39	=39	=39	=39	=39	=39
!	!	!	!	!	!	!	!	!	!	!	!	!	!	!	!LO:DY:a
4.EE-/ 4.E-/	.	4.e-/ 4.g/ 4.cc/	.	4.E-\	no-	.	4.c\	no-	.	4.g\	no-	.	4.cc\	-no-	<
8DD/ 8D/	.	8f/ 8g/ 8bn/ 8dd/	.	8D\	-bis	.	8Bn\	-bis	.	8f\	-bis	.	8dd\	-bis	.
*	*	*^	*	*	*	*	*	*	*	*	*	*	*	*	*
4.CC/ 4.C/	.	4.e-/ 4.cc/ (4.ee-/	4.g\	.	4.C\	pec-	.	4.c\	pec-	.	4.e-\	pec-	.	4.ee-\	pec-	.
8EE-/ 8E-/	.	16e-/LL 16dd/)	8g\	.	8E-\	-ca	.	8c\	-ca	.	8g\	-ca-	.	16dd\LL	-ca-	[
.	.	16cc/JJ	.	.	.	.	.	.	.	.	.	.	.	16cc\JJ	.	.
=40	=40	=40	=40	=40	=40	=40	=40	=40	=40	=40	=40	=40	=40	=40	=40	=40
(2FF/ 2F/	.	4.b-/	2c\ 2f\	.	4.F\	to-	.	4.c\	to	.	4.f\	-to-	.	4.b-\	-to-	.
.	.	8a/	.	.	8F\	-ri	.	8c\	ri	.	8f\	-ri-	.	8a\	-ri-	.
4FF/) 4F/	.	4f/ 4a/	4c\	.	4F\	bus	.	4c\	bus	.	4f\	-bus	.	4a\	-bus	.
4EE-/ 4E-/	.	4c/ 4f/ 4a/	4ryy	.	4E-\	pro	.	4c\	pro	.	4f\	pro	.	4a\	pro	.
*	*	*v	*v	*	*	*	*	*	*	*	*	*	*	*	*	*
=41	=41	=41	=41	=41	=41	=41	=41	=41	=41	=41	=41	=41	=41	=41	=41
!!linebreak:original
4.DD-X/ 4.D-X/	.	4.d-X/ 4.f/ 4.b-/	.	4.D-/	no-	.	4.B-\	no	.	4.f\	no-	.	4.b-\	no-	.
8CC/ 8C/	.	8e-/ 8f/ 8a/ 8cc/	.	8C/	-bis	.	8An\	bis	.	8e-\	-bis	.	8cc\	-bis	.
4.BBB-/ 4.BB-/	.	4.d-X/ 4.f/ 4.b-/ 4.dd-X/	.	4.BB-/	pec-	.	4.B-\	pec-	.	4.d-X\	pec-	.	4.dd-X\	pec-	.
8DD-X/ 8D-X/	.	16d-/LL 16f/ 16cc/	.	8D-X/	-ca	.	8B-\	-ca	.	8f\	-ca	.	16cc\LL	-ca	.
.	.	16b-/JJ	.	.	.	ff	.	.	ff	.	.	ff	16b-\JJ	.	ff
=42	=42	=42	=42	=42	=42	=42	=42	=42	=42	=42	=42	=42	=42	=42	=42
*	*	*^	*	*	*	*	*	*	*	*	*	*	*	*	*
!	!	!	!	!LO:DY:a	!	!	!	!	!	!	!	!	!	!	!	!
2GGG-X/ [2GG-X/	.	[2een/	2b-\ 2dd-X\	ff	4.GG-X/	to-	.	4.d-X\	to-	.	4.b-\	to	.	4.een\	to-	.
.	.	.	.	.	8GG-/	-ri	.	8d-\	-ri	.	8b-\	ri	.	8ee\	-ri-	.
4.GGG-/ 4.GG-/]	.	4.dd-/ 4.een/]	4.b-\	.	4.GG-/	bus	.	4.d-\	bus	.	4.b-\	bus	.	4.ee\	-bus	.
8r;	.	8r;	8ryy	.	8r;	.	.	8r;	.	.	8r	.	.	8r;	.	.
!	!LO:DY:a	!	!	!	!	!	!	!	!	!	!	!	!	!	!	!
.	pp	.	.	.	.	.	.	.	.	.	.	.	.	.	.	.
=43	=43	=43	=43	=43	=43	=43	=43	=43	=43	=43	=43	=43	=43	=43	=43	=43
*^	*	*	*	*	*	*	*	*	*	*	*	*	*	*	*	*
!LO:TX:b:t=colla parte	!	!	!	!	!LO:DY:a	!	!	!	!	!	!	!	!	!	!LO:TX:a:t=dolce	!	!
(2dn/	[>2F\	.	2ff/	2b-\	.	2FF/	o-	.	2dn\	o-	.	(2b-\	o-	.	2ff\	o-	.
!	!	!	!	!	!	!	!	!	!	!	!	!	!	!	!LO:TX:a:t=a picare un poco	!	!
4B-/)	4F\]	.	4ddn/	4f\	.	4FF/	-ra	.	4B-\	-ra	.	4f\)	-ra	.	4ddn\	-ra	.
4r	4ryy	.	4r	4ryy	.	4r	.	.	4r	.	.	4r	.	.	4r	.	.
=44	=44	=44	=44	=44	=44	=44	=44	=44	=44	=44	=44	=44	=44	=44	=44	=44	=44
2c/	2F\	.	(2ee-/	2a\	.	2F\	o-	.	2c\	o-	.	2a\	o-	.	2ee-\	o-	.
4A/	4F\	.	4cc/)	4f\	.	4F\	-ra	.	4A\	-ra	.	4f\	-ra	.	4cc\	-ra	.
4r	4ryy	.	4r	4ryy	.	4r	.	.	4r	.	.	4r	.	.	4r	.	.
*v	*v	*	*	*	*	*	*	*	*	*	*	*	*	*	*	*	*
=45	=45	=45	=45	=45	=45	=45	=45	=45	=45	=45	=45	=45	=45	=45	=45	=45
!LO:TX:b:t=tempo 1mo	!	!	!	!LO:DY:a	!	!	!	!	!	!	!	!	!	!LO:TX:a:t=a tempo 1mo	!	!LO:DY:a
4.CC/ 4.C/	.	4.cc/ 4.ee-/	4.g\	sf	4.C\	nunc	.	4.c\	nunc	.	4.g\	nunc	.	4.ee-\	nunc	sf
8r	.	8r	8ryy	.	8r	.	.	8r	.	.	8r	.	.	8r	.	.
2FF/ 2F/	.	2f/ 2a/ 2cc/	2ryy	.	4.F\	et	.	4.A/	et	.	4.f\	et	.	4.cc\	et	.
.	.	.	.	.	8F\	in	.	8A\	in	.	8f\	in	.	8cc\	in	.
=46	=46	=46	=46	=46	=46	=46	=46	=46	=46	=46	=46	=46	=46	=46	=46	=46
2BB-\ 2B-\	.	2b-/ 2dd/	2f\	.	2BB-/	ho-	.	2B-\	ho-	.	2f\	ho-	.	2dd\	ho-	.
4BB-\ 4B-\	.	4d/ 4f/ 4b-/	2ryy	.	4BB-/	-ra	.	4d\	-ra	.	4f\	-ra	.	4b-\	-ra	.
4r	.	4re	.	.	4r	.	.	4r	.	.	4r	.	.	4r	.	.
*	*	*v	*v	*	*	*	*	*	*	*	*	*	*	*	*	*
=47	=47	=47	=47	=47	=47	=47	=47	=47	=47	=47	=47	=47	=47	=47	=47
!	!	!	!	!	!	!	!	!	!	!	!	!	!	!	!LO:DY:a
4.EE-/ 4.E-/	sf	4.g/ 4.cc/	sf	4.E-\	nunc	.	4.G/	nunc	.	4.g\	nunc	.	4.cc\	nunc	sf
8r	.	8r	.	8r	.	.	8r	.	.	8r	.	.	8r	.	.
2DD/ 2D/	.	2f#X/ 2a/ 2dd/	.	4.D/	et	.	4.A\	et	.	4.f#X\	et	.	4.dd\	et	.
.	.	.	.	8D/	in	.	8A\	in	.	8f#\	in	.	8dd\	in	.
=48	=48	=48	=48	=48	=48	=48	=48	=48	=48	=48	=48	=48	=48	=48	=48
!!pagebreak:original
*	*	*^	*	*	*	*	*	*	*	*	*	*	*	*	*
2.GG/ 2.G/	.	2.b-/	2.g\	.	2.G\	ho-	.	2.B-\	ho-	.	2.g\	ho-	.	2.b-\	ho-	.
4GG/ 4G/	.	4g/	4ryy	.	4G\	-ra	.	4G/	-ra	.	4g\	-ra	.	4g\	-ra	.
*	*	*v	*v	*	*	*	*	*	*	*	*	*	*	*	*	*
=49	=49	=49	=49	=49	=49	=49	=49	=49	=49	=49	=49	=49	=49	=49	=49
!	!	!	!LO:DY:a:rj	!	!	!	!	!	!	!	!	!	!	!	!LO:DY:a:rj
2.AA-X/ 2.A-X/	.	2.a-X/	pp	2.A-X\	mor-	.	2.A-X\	mor-	.	2.a-X\	mor-	.	2.a-X\	mor-	pp
4GG/ 4G/	.	(4g/	.	4G\	-tis	.	4G/	-tis	.	4g\	-tis	.	4g\	-tis	.
=50	=50	=50	=50	=50	=50	=50	=50	=50	=50	=50	=50	=50	=50	=50	=50
2FF#X/ 2F#X/	.	2f#X/)	.	2F#X\	no-	.	2F#X/	no-	.	2f#X\	no-	.	2f#X/	no-	.
4GG/ 4G/	.	4g/	.	4G\	-strae	.	4G/	-strae	.	4g\	-strae	.	4g/	-strae	.
4r	.	4r	.	4r	.	.	4r	.	.	4r	.	.	4r	.	.
=51	=51	=51	=51	=51	=51	=51	=51	=51	=51	=51	=51	=51	=51	=51	=51
!	!	!	!	!	!	!	!	!	!	!	!	!	!	!	!LO:DY:a
1EE-/ [1E-/	.	2e-/ 2g/ 2b-/	.	2E-\	nunc	.	2B-\	nunc	.	2g\	nunc	.	2b-\	nunc	<
.	.	4e-/ 4f#X/ 4an/ 4cc/	.	4E-\	et	.	4An\	et	.	4f#X\	et	.	4cc\	et	.
!	!	!	!	!	!	!LO:DY:a	!	!	!	!	!	!	!	!	!
.	.	4e-/ 4g/ 4b-/	.	4E-\	in	>	4B-\	in	.	4g\	in	.	4b-\	in	[[
=52	=52	=52	=52	=52	=52	=52	=52	=52	=52	=52	=52	=52	=52	=52	=52
1EE-/ 1E-/]	.	4c/ 4e-/ 4f#X/ 4an/	.	4E-\	ho-	.	4c\	ho-	.	4f#X\	ho-	.	4an\	hora	.
.	.	4B-/ 4e-/ 4g/ 4b-/	.	4E-\	-ra	.	4B-\	-ra	.	4g\	-ra	.	4b-\	.	.
.	.	4e-/ 4f#X/ 4a/ 4cc/	.	4E-\	et	]	4An\	et	.	4f#\	et	.	4cc\	et	.
.	.	4e-/ 4g/ 4b-/	.	4E-\	in	.	4B-\	in	.	4g\	in	.	4b-\	in	.
=53	=53	=53	=53	=53	=53	=53	=53	=53	=53	=53	=53	=53	=53	=53	=53
2DD/ 2D/	.	2B-/ 2fn/ 2b-/	.	2D\	ho-	.	2f\	ho-	.	2fn\	ho-	.	2b-\	ho-	.
2CC#X/ 2C#X/	.	2B-/ 2en/ 2g/ 2b-/	.	2C#X\	-ra	.	2en\	-ra	.	2g\	-ra	.	2b-\	-ra	.
=54	=54	=54	=54	=54	=54	=54	=54	=54	=54	=54	=54	=54	=54	=54	=54
*	*	*^	*	*	*	*	*	*	*	*	*	*	*	*	*
4DD/ 4D/	.	(4f/ 4b-/	2B-\	.	(4D\	mor	.	(4f\	mor	.	(4f\	mor-	.	2b-\	mor-	.
4DD-X/ 4D-X/	.	4en/) 4g/ 4b-/	.	.	4D-X\)	.	.	4en\)	.	.	4g\)	.	.	.	.	.
4CC/ 4C/	.	4e-X/ 4f/ 4a/ 4cc/	2ryy	.	(>4C/	tis	.	(4e-X\	tis	.	(4a\	-tis	.	(4cc\	-tis	.
4BBB-/ 4BB-/	.	4d/ 4f/ 4b-/ 4dd/	.	.	4BB-/)	.	.	4d\)	.	.	[4b-\)	.	.	4dd\)	.	.
.	.	.	.	.	.	.	.	.	.	.	.	.	.	.	.	>
=55	=55	=55	=55	=55	=55	=55	=55	=55	=55	=55	=55	=55	=55	=55	=55	=55
*	*	*	*^	*	*	*	*	*	*	*	*	*	*	*	*	*
!	!	!	!LO:TX:t=P:problem=2b- przed 2.cc i 2.f	!	!	!	!	!	!	!	!	!	!	!	!	!	!
(1FF/ 1F/	.	2.cc/	2b-\	2.f\	.	1FF/ 1F/	no	.	2.f\	no-	.	4b-\]	no-	.	(2.cc\	no-	.
.	.	.	.	.	.	.	.	.	.	.	.	8a\L	.	.	.	.	]
.	.	.	.	.	.	.	.	.	.	.	.	8g\J	.	.	.	.	.
.	.	.	2a\	.	.	.	.	.	.	.	.	2a\	.	.	.	.	.
.	.	8dd/L	.	8f\L	.	.	.	.	8f\L	.	.	.	.	.	8dd\L	.	.
.	.	8cc/J	.	8e-\J	.	.	.	.	8e-\J	.	.	.	.	.	8cc\J)	.	.
*	*	*v	*v	*v	*	*	*	*	*	*	*	*	*	*	*	*	*
=56	=56	=56	=56	=56	=56	=56	=56	=56	=56	=56	=56	=56	=56	=56	=56
!!linebreak:original
4.GG/) 4.G/	.	4.d/ 4.b-/	.	4.GG\ 4.G\	stre	.	4.d\	-stre	.	4.b-\	-stre	.	4.b-\	-stre	.
8r	.	8r	.	8r	.	.	8r	.	.	8r	.	.	8r	.	.
*	*	*^	*	*	*	*	*	*	*	*	*	*	*	*	*
*	*	*	*^	*	*	*	*	*	*	*	*	*	*	*	*	*
!	!	!	!	!LO:TX:t=P:problem= 2b- na 3i	!	!	!	!	!	!	!	!	!	!	!	!	!
4GG/ 4G/	.	4ee-/	4e-\	2b-\	.	(4G\	A-	.	[2B-\	A-	.	(4e-\	A-	.	(4ee-\	A-	.
4FF/ 4F/	.	4dd/	4f\	.	.	4G\	.	.	.	.	.	4f\	.	.	4dd\	.	.
*	*	*	*v	*v	*	*	*	*	*	*	*	*	*	*	*	*	*
=57	=57	=57	=57	=57	=57	=57	=57	=57	=57	=57	=57	=57	=57	=57	=57	=57
2EE-/ 2E-/	.	1cc/	2g\ 2b-\	.	2E-\)	.	.	2B-\]	.	.	2g\)	.	.	1cc\)	.	.
2FF/ 2F/	.	.	2f\ 2a\	.	2F\	.	.	(>2A/	.	.	2f\	.	.	.	.	.
*	*	*v	*v	*	*	*	*	*	*	*	*	*	*	*	*	*
=58	=58	=58	=58	=58	=58	=58	=58	=58	=58	=58	=58	=58	=58	=58	=58
2BBB-/ 2BB-/	.	2d/ 2f/ 2b-/	.	2BB-/	-men	.	4B-\)	-men	.	2d\	-men	.	2b-\	-men	.
.	.	.	.	.	.	.	8g\L	A-	.	.	.	.	.	.	.
.	.	.	.	.	.	.	8f\J	.	.	.	.	.	.	.	.
2r	.	2r	.	2r	.	.	8e-\L	.	.	2r	.	.	2r	.	.
.	.	.	.	.	.	.	8d\	.	.	.	.	.	.	.	.
.	.	.	.	.	.	.	8c\	.	.	.	.	.	.	.	.
.	.	.	.	.	.	.	8B-\J	.	.	.	.	.	.	.	.
=59	=59	=59	=59	=59	=59	=59	=59	=59	=59	=59	=59	=59	=59	=59	=59
1FF/ (1F/	.	1e-/ 1f/ 1a/ 1cc/	.	1F\	A-	.	1A\	.	.	1f\	A-	.	(1cc\	A-	.
=60	=60	=60	=60	=60	=60	=60	=60	=60	=60	=60	=60	=60	=60	=60	=60
*	*	*^	*	*	*	*	*	*	*	*	*	*	*	*	*
2BB-\ 2B-\)	.	2f/ 2b-/ 2dd/	2d\	.	2B-\	-men	.	2B-\	-men	.	2f\	-men	.	4dd\)	-men	.
.	.	.	.	.	.	.	.	.	.	.	.	.	.	8gg\L	A-	.
.	.	.	.	.	.	.	.	.	.	.	.	.	.	8ff\J	.	.
2r	.	2r	2r	.	4r	.	.	2r	.	.	2r	.	.	(12ff\L	.	.
.	.	.	.	.	.	.	.	.	.	.	.	.	.	12ee-\	.	.
.	.	.	.	.	.	.	.	.	.	.	.	.	.	12dd\J)	.	.
.	.	.	.	.	4r	.	.	.	.	.	.	.	.	(12dd\L	.	.
.	.	.	.	.	.	.	.	.	.	.	.	.	.	12cc\	.	.
.	.	.	.	.	.	.	.	.	.	.	.	.	.	12b-\J)	.	.
*	*	*v	*v	*	*	*	*	*	*	*	*	*	*	*	*	*
=61	=61	=61	=61	=61	=61	=61	=61	=61	=61	=61	=61	=61	=61	=61	=61
1FF/ 1F/	.	1c/ [1d/ 1f/ 1a/	.	1F\	A-	.	1c\	A-	.	1f\	A-	.	1a\	.	.
=62	=62	=62	=62	=62	=62	=62	=62	=62	=62	=62	=62	=62	=62	=62	=62
!	!	!	!LO:DY:a	!	!	!	!	!	!	!	!	!	!	!	!
4BBB-/ 4BB-/	.	1d/_ 1f/ 1b-/	>	2.BB-/	-men.	.	2.d\	-men	.	2.f\	-men.	.	2.b-\	-men.	.
(<4BB-\ 4B-\	.	.	.	.	.	.	.	.	.	.	.	.	.	.	.
4FF\ 4F\	.	.	.	.	.	.	.	.	.	.	.	.	.	.	.
4DD\ 4D\	.	.	.	4r	.	.	4r	.	.	4r	.	.	4r	.	.
=63	=63	=63	=63	=63	=63	=63	=63	=63	=63	=63	=63	=63	=63	=63	=63
4BBB-/) 4BB-/	.	1d/_ 1f/ 1b-/	.	1r	.	.	1r	.	.	1r	.	.	1r	.	.
(4F/	.	.	.	.	.	.	.	.	.	.	.	.	.	.	.
4D/	.	.	]	.	.	.	.	.	.	.	.	.	.	.	.
4BB-/	.	.	.	.	.	.	.	.	.	.	.	.	.	.	.
=64	=64	=64	=64	=64	=64	=64	=64	=64	=64	=64	=64	=64	=64	=64	=64
2FF/	.	1d/_ 1f/ 1b-/	.	1r	.	.	1r	.	.	1r	.	.	1r	.	.
2DD/	.	.	.	.	.	.	.	.	.	.	.	.	.	.	.
=65	=65	=65	=65	=65	=65	=65	=65	=65	=65	=65	=65	=65	=65	=65	=65
2.BBB-/)	.	2.d/] 2.f/ 2.b-/	.	1r	.	.	1r	.	.	1r	.	.	1r	.	.
4r	.	4r	.	.	.	.	.	.	.	.	.	.	.	.	.
==	==	==	==	==	==	==	==	==	==	==	==	==	==	==	==
*-	*-	*-	*-	*-	*-	*-	*-	*-	*-	*-	*-	*-	*-	*-	*-
!!!system-decoration: s1,s2,s3,s4{(s5,s6)}
!!!RDF**kern: > = above
!!!RDF**kern: < = below
!!!ENC: Berenika Jozajtis
!!!END: 2020-03-06
!!!ENC: Leszek Kubiak
!!!END: 2020-04-03
